X:231
T:Cooley's
R:hornpipe
Z:transcribed by Dave Marshall
M:C|
K:G
|: gG (3GGG EGDC | B,G,B,D GBdg | e2ce d2Bd | BAAG A2 (3def |
gG (3GGG EGDC | B,G,B,D GBdg | ecAG FDdc |1 B2G2 G2 (3def :|2 B2G2 G2GA |
|: BABd edBd | gbag egdB | dgge dBGA | BAAG A2dc |
BG (3GGG E2cE | E2cE DGBd | g2fe d2cA |1 B2G2 G2GA :|2 B2G2 G4 |
